!! 00000] TT[00
!! NN
!!!OTL: Ya ru
!!!ARE: Xinjiang, Kashi (SÅd)
!! Ethnic Group: Weiwuer
!! IV, 413
!!!SCT: C0424B
!!!YEM: Copyright 1995, estate of Helmut Schaffrath.
**kern
*ICvox
*Ivox
!! Mixed meters:  2/4; 3/4
*M3/4
*k[b-e-]
*B-:
{2r
8r
16ccc
16ccc
=1
*M2/4
8ddd
4.ddd
=2
[4ddd]
8.ddd]}
{16ddd
=3
4eee-
4ddd
=4
*M3/4
4ccc
8.bb-
16ccc
4ddd}
=5
*M2/4
{4ccc
8.bb-
16ccc
=6
8bb-
[4.aa
=7
2aa]}
=8
{4.bb-
8ccc
=9
16ccc
16bb-
[4.aa
=10
*M3/4
2aa]
8bb-
8aa}
=11
*M2/4
{[2gg
=12
8.gg]
16bb-
16aa
16bb-
16aa
16gg
=13
16aa
16gg
[4.ff#
=14
8.ff#]
16aa
4gg}
=15
{8r
16dd
16ee-
8ff#
[8gg
=16
2gg_
=17
2gg]}
=18
{8.bb-
16ccc
8.aa
16bb-
=19
8.gg
16aa
4ff#
=20
4ee-}
{8.gg
16aa
=21
8ff#
16ee-
16ee-
8ee-
8dd
=22
[2dd
=23
2dd]}
=24
{[2gg
=25
8.gg]
16bb-
16aa
16bb-
16aa
16gg
=26
16aa
16gg
8ff#
8ee-
8dd}
=27
{8ff#
16ee-
16ee-
8ee-
16gg
16dd
=28
[2dd
=29
2dd_
=30
8dd]
4.r}
==
!!!AGN: Aiqing gequ
!! +++Dieses Lied wurde GETEILT!!! Der 1. Teil ist im vorherigen Dokument
!!    unter gleicher Signatur A kodiert.
!!    Vereinzelt Verzierungen. Vor- und Zwischenspiele weggelassen.
!!!ONB: ESAC (Essen Associative Code) Database: CHINA
!!!AMT: irregular
!!!AIN: vox
!!!EED: Helmut Schaffrath
!!!EEV: 1.0
*-
!!!ONB: Tied note syntax fixed by Craig Sapp, 2004/05/03/
